X:1
T:Stille Nacht! Heilige Nacht!
%%score { 1 | 2 }
L:1/8
M:6/8
K:D
V:1 treble nm="Piano" snm="Pno."
V:2 bass 
V:1
 [FA]>[GB][FA] [DF]2 z | [FA]>[GB][FA] [DF]2 z | [Ge]>[F^d][Ge] [Ec]2 z | [Fd]>[Ec][Fd] [FA]2 z | %4
w: |hei- li- ge Nacht|Al- les schläft *|ein- * sam wacht|
w: Stil- * le Nacht||||
 [GB]2 [GB] [Bd]>[Ac][GB] | [FA]>[GB][FA] [DF]2 z | [GB]2 [GB] [Bd]>[Ac][GB] | %7
w: nur das trau- te hoch|hei- li- ge Paar|hol- der Kna- be im|
w: |||
 [FA]>[GB][FA] [DF]2 z | [Ec]>[Ec][Ec] [Ge]>[Fd][Ec] | [Fd]3 [Af]2 z | %10
w: lok- ki- gen Haar|schla- fe in himm- li- scher|Ruh- uh|
w: |||
 [Fd]>[FA][DF] [FA]>[EG][CE] | D[DF][CE] D/F/B/A/F/D/ | [Ec]>[Ec][Ec] [Ge]>[Fd][Ec] | %13
w: schla- * f in himm- li-|scher Ruh * * * * * * *||
w: |||
 [Fd]3 [Af]2 z | [Fd]>[FA]F/B/ A>[EG][CE] | D/F/B/A/F/D/ C/E/A/G/E/C/ | D[DF][DF] [DF]2 z |] %17
w: ||||
w: ||||
V:2
 D,[F,A,][F,A,] D,/F,/A,/F,/A,/F,/ | D,[F,A,][F,A,] D,/F,/A,/F,/A,/F,/ | %2
 A,,[C,E,][C,E,] A,,[E,A,][E,A,] | [D,G,][F,A,][F,A,] D,/F,/A,/F,/A,/F,/ | %4
 G,,[D,F,][D,F,] G,,[D,F,][D,F,] | D,[F,A,][F,A,] D,/F,/A,/F,/D,/F,/ | %6
 G,,[D,G,][D,G,] G,,[D,G,][D,G,] | D,[F,A,][F,A,] D,/F,/A,/F,/A,/F,/ | %8
 B,,[F,A,][F,A,] B,,[F,A,][F,A,] | D,[F,A,][F,A,] D,/F,/A,/D/A,/F,/ | %10
 D,[F,A,][F,A,] A,,[E,A,][E,A,] | [D,,D,]2 A,, [D,,D,]2 z | A,,[E,A,][E,A,] A,,[E,A,][E,A,] | %13
 D,[F,A,][F,A,] D,/F,/A,/D/A,/F,/ | D,[F,A,][F,A,] A,,[E,A,][E,A,] | [D,F,A,]3 [A,,D,A,]3 | %16
 [D,F,][D,,A,,D,][D,,A,,D,] [D,,A,,D,]2 z |] %17

